X:0516
T:Come Sweet Lass.
M:C
L:1/8
Q:1/2=104
I: :: (1) :: (2) ::
Z:Jack Campin * www.campin.me.uk * 2009
K:G
G2d2 B3e|dBAG AFED|G2d2 B3 e|   dgfa g4::
g2b2 e3g|dBAG e3 g|dBAG FADc|[1 B2A2 G4:|\
                             [2 BAGF G4|]
<end>
<start>
